coreui/free/cil-zoom-out.svg

<svg xmlns="http://www.w3.org/2000/svg" viewBox="0 0 512 512">
  <rect width="192" height="32" x="96.344" y="175.313" fill="var(--ci-primary-color, currentColor)" class="ci-primary"/>
  <path fill="var(--ci-primary-color, currentColor)" d="M479.6,399.716l-81.084-81.084-62.368-25.767A175.014,175.014,0,0,0,368,192c0-97.047-78.953-176-176-176S16,94.953,16,192,94.953,368,192,368a175.034,175.034,0,0,0,101.619-32.377l25.7,62.2L400.4,478.911a56,56,0,1,0,79.2-79.195ZM48,192c0-79.4,64.6-144,144-144s144,64.6,144,144S271.4,336,192,336,48,271.4,48,192ZM456.971,456.284a24.028,24.028,0,0,1-33.942,0l-76.572-76.572-23.894-57.835L380.4,345.771l76.573,76.572A24.028,24.028,0,0,1,456.971,456.284Z" class="ci-primary"/>
</svg>

<svg viewBox="0 0 512 512" xmlns="http://www.w3.org/2000/svg"><g><path d="M96.344 175.313h192v32h-192Z"/><path d="M479.6 399.71l-81.09-81.09 -62.37-25.77v0c20.76-29.54 31.89-64.77 31.85-100.87 0-97.05-78.96-176-176-176 -97.05 0-176 78.95-176 176 0 97.04 78.953 176 176 176h-.001c36.41.04 71.93-11.28 101.61-32.38l25.7 62.2 81.08 81.08v0c21.86 21.87 57.32 21.87 79.19 0 21.87-21.87 21.87-57.33 0-79.2 0 0-.01-.01-.01-.01ZM48 191.99c-.001-79.4 64.6-144 144-144s144 64.6 144 144 -64.6 144-144 144 -144-64.6-144-144Zm408.97 264.284v0c-9.38 9.35-24.57 9.35-33.95 0l-76.572-76.572 -23.9-57.84 57.83 23.89 76.57 76.572v0c9.35 9.37 9.35 24.56-.01 33.94Z"/></g></svg>
